X: 1
T: Gm Schottische from Malung
N: See also Gm Shottish av \AAker Erland Jonsson
O: Sweden
R: shottish
Z: 2017 John Chambers <jc:trillian.mit.edu>
M: 4/4
L: 1/8
K: Gm
|:\
"Gm"g^fga g2d2 | d^cde d2B2 | "D7"A2Ac BAG^F |\
[1,3 "Gm"G^FGA "D7"Bcd^f :|[2,4 "Gm"G2G2 G4 :|
|:\
"Gm"G2GA G^FD2 | B2Bc BAG2 |"D7"d2de dcBA |\
[1,3 "Gm"GABA G2D2 :|[2,4 "G"G2G2 G4 :|
